X:1
T:Quem terra, pontus, æthera
T:William Byrd (c.1540-1623)
T:5. pars.
T:Quem terra, pontus, æthera
T:© Choral Public Domain Library 2010
T:© Choral Public Domain Library 2010
T:© Choral Public Domain Library 2010
T:© Choral Public Domain Library 2010
T:© Choral Public Domain Library 2010
T:© Choral Public Domain Library 2010
T:© Choral Public Domain Library 2010
C:William Byrd (c.1540-1623)
Z:5. pars.
Z:© Choral Public Domain Library 2010
%%score [ 1 2 3 ]
L:1/8
M:4/4
K:F
V:1 treble nm="Alto" snm="A."
V:2 treble-8 transpose=-12 nm="Tenor" snm="T."
V:3 bass nm="Bass" snm="B."
V:1
 [Cd]2 |[M:4/2] z16 | A4 G2 A2 B4 A4 | G6 F2 E8 | A8 F8 | z2 D2 G8 E4 | z2 F4 F2 E4 z2 G2- | %7
w: ||Quem ter- ra, pon- tus,|æ- the- ra|co- lunt,|a- do- rant,|pre- di- cant, pre-|
 G2 ^FE F2 F2 G8 | z8 G4 A2 G2 | ^F4 G2 B2 A4 B4 | z8 z4 c4 | B2 A2 c4 G2 B3 A F2 | %12
w: * * * * di- cant,|Tri- nam re-|gen- tem ma- chi- nam,|clau-|strum Ma- ri- æ ba- ju- lat,|
 z2 G4 F2 E2 A4 D2 | F3 D EF G3 F F4 E2 | !fermata!F16 || F6 E2 F4 C4 | z2 c4 G2 A3 A G4 | %17
w: clau- strum Ma- ri- æ|ba- * * * * * * ju-|lat.|Cu- i lu- na,|Sol, et om- ni- a|
 z2 G2 A6 G2 F2 E2 | D3 D C2 A2 c3 B A2 G2 | F3 F D4 z4 E4 | F2 G2 A4 G2 A4 F2 | %21
w: de- ser- vi- unt per|tem- po- ra, de- ser- vi- unt per|tem- po- ra, per-|fu- sa cæ- li gra- ti-|
 E2 A4 G2 A4 z2 A2 | B2 c2 d4 c2 A4 B2 | G4 z2 G2 G2 G2 A4 | G2 F4 E2 D4 z2 A2 | %25
w: a, gra- ti- a, per-|fu- sa cæ- li gra- ti-|a, ge- stant pu- el-|læ vi- sce- ra, ges-|
 G2 A2 c4 B2 A4 G2 | F4 z2 F2 E2 F2 G4- | G2 F2 E3 D C4 F4- | F2 ED E2 E2 | !fermata!F16 || %30
w: tant pu- el- læ vi- sce-|ra, ges- tant pu- el-|* læ vi- sce- ra, vi-|* sce- * * *|ra.|
 z4 A4 c4 B2 A2- | A2 G2 F3 F E8 | z16 | z4 G4 F2 E2 c4 | B2 A4 F2 E4 D2 F2- | FG A4 GF E8 | %36
w: Be- a- ta ma-|* ter mu- ne- ra,||cu- jus su- per-|nus ar- ti- fex, su- per-|* nus ar- ti- * fex,|
 z4 F8 C4- | C2 D2 E2 F2 G6 F2 | F2 ED E2 E2 D8 | z4 A4 G4 A2 c2- | c2 B2 A2 G2 ^F2 G4 F2 | %41
w: mun- dum|_ pu- gil- lo con- *|* * * * ti- nens,|ven- tris sub ar-|* ca clau- * * * sus|
 G8 z4 B4 | A4 G2 d4 c2 B2 A2 | A4 z2 D2 F4 D2 A2- | A2 G2 E4 z4 A4 | c6 F2 B3 A B2 G2 | %46
w: est, ven-|tris sub ar- ca clau- sus|est, sub ar- ca clau-|* sus est, sub|ar- ca clau- * * sus|
 !fermata!A16 || z8 z4 C4 | F4 E4 A4 G4 | c6 BA G8 | z4 A4 G4 F4 | B4 A4 G6 F2 | %52
w: est.|Be-|a- ta cæ- li|nun- ci- * o,|Fe- cun- da|san- cto spi- ri-|
 E4 z2 G2 F2 E2 c4 | B2 A4 G2 A8 | z4 A8 G4 | ^F8 z4 D4 | F4 G2 B4 A2 B4 | G4 F4 A2 c4 B2 | %58
w: tu, De- si- de- ra-|tus gen- ti- bus,|gen- ti-|bus, Cu-|jus per al- vum fu-|sus est, per al- vum|
 c2 A2 G4 E2 G4 F2 | E2 CD EF G3 F F4 E2 | !fermata!F16 || z16 | z4 F8 G4 | A4 B8 A4 | %64
w: fu- sus est, per al- vum|fu- * * * * * * * sus|est.||Glo- ri-|a ti- bi|
 B4 G4 F4 z2 A2 | D2 E2 F2 G2 A3 G F2 G2- | G2 F2 E2 D2 ^C2 D4 C2 | D8 z2 G2 ^F4 | %68
w: Do- mi- ne, Qui|na- tus es de vir- gi- ne, vir-|* * * * * * gi-|ne, Cum Pa-|
 G4 z2 c2 =B4 c4 | z4 z2 A2 B2 G2 A2 F2 | E4 z4 E4 G3 F | E2 C2 z2 G2 c3 B A2 F2 | %72
w: tre, cum Pa- tre|et san- cto Spi- ri-|tu, In sem- pi-|ter- na, in sem- pi- ter- na|
 z2 A4 G2 F4 z2 A2- | A2 GF E2 F2 !fermata!E8 || F8 G8 | A4 z2 F2 B2 A2 G2 F2 | EF G4 F2 E2 F4 E2 | %77
w: sæ- cu- la, sæ-|* * * * cu- la.|A- *|men. A- * * * *||
 F8 z2 C2 F4- | F2 _E2 D4 | !fermata!C16 |] %80
w: men. A- *||men.|
V:2
 [Da]2 |[M:4/2] A4 G2 A2 B4 A4 | c4 B2 c2 d4 c4 | z2 c4 A2 G4 c4- | c4 A4 z2 A2 d4- | %5
w: |Quem ter- ra, pon- tus,|quem ter- ra, pon- tus,|æ- the- ra co-|* lunt, a- do-|
 d4 =B4 z2 c4 c2 | F4 AB c4 BA B2 B2 | A8 z4 B4 | c2 B2 A4 B2 d2 ^c3 c | d2 A2 B4 c4 d4 | %10
w: * rant, pre- di-|cant, pre- * * * * * di-|cant, Tri-|nam re- gen- tem ma- * chi-|nam, ma- * chi- nam,|
 f4 e2 d2 f4 c4 | d3 c A4 z8 | c4 B2 A2 c4 F2 B2- | BA F2 G3 A Bc A2 G4 | !fermata!A16 || %15
w: Clau- strum Ma- ri- æ|ba- ju- lat,|clau- strum Ma- ri- æ ba-|* ju- lat, ba- * * * * ju-|lat.|
 z8 A6 G2 | A4 E4 z2 e4 d2 | e3 e f2 c2 f3 e d2 c2 | =B3 B c4 z4 A2 c2- | c2 =BA B2 B2 c4 z2 c2 | %20
w: Cu- i|lu- na, Sol, et|om- ni- a de- ser- vi- unt per|tem- po- ra, per tem-|* * * * po- ra, per-|
 d2 e2 f6 e2 f2 d2 | A4 z4 z2 e2 f4 | g2 a4 g2 a3 g f2 g2 | e4 z2 e2 d2 e2 f4 | e2 d4 c2 =B4 c4- | %25
w: fu- sa cæ- li gra- ti-|a, per- fu-|sa cæ- li gra- * * ti-|a, ge- stant pu- el-|læ vi- sce- ra, vi-|
 c2 c2 c4 z8 | z2 B2 A2 B2 c6 B2 | A3 A G4 A2 A4 B2 | G6 G2 | !fermata!A16 || c4 f6 e2 d4 | %31
w: * sce- ra,|ges- tant pu- el- læ|vi- sce- ra, pu- el- læ|vi- sce-|ra.|Be- a- ta ma-|
 c2 B3 A F2 c8 | A4 c4 B2 A2 F2 A2- | A2 GF G2 G2 A8 | z2 F2 D2 A2 c4 B2 A2- | %35
w: ter mu- ne- * ra,|be- a- ta ma- ter mu-|* * * * ne- ra,|cu- jus su- per- nus ar-|
 A2 F2 D2 d4 ^c=B c2 c2 | d8 z4 A4- | A4 G6 A2 B2 c2 | d2 c2 c6 =BA B4 | c8 z4 f4 | %40
w: * ti- fex, ar- * * * ti-|fex, mun-|* dum pu- gil- *|* lo con- ti- * *|nens, ven-|
 e4 f2 c4 B2 A2 A2 | G4 d4 c4 d2 f2- | f2 e2 d2 d2 e2 A2 d4- | d2 c2 A2 B2 A4 z2 F2 | %44
w: tris sub ar- ca clau- sus|est, ven- tris sub ar-|* ca clau- sus est, sub ar-|* ca clau- sus est, sub|
 c4 G2 c4 A2 F4 | z2 A2 c4 d2 f4 e2 | !fermata!f16 || F8 B4 A4 | d4 c4 c6 c2 | F4 f6 ed e2 e2 | %50
w: ar- ca clau- sus est,|sub ar- ca clau- sus|est.|Be- a- ta|cæ- li nun- ci-|o, nun- * * * ci-|
 f4 z2 c2 B2 c2 A2 F2 | z2 d2 c2 d2 B2 c2 A2 =B2 | c4 c4 A6 A2 | d3 f e2 d2 c4 z2 c2 | %54
w: o, Fe- cun- da san- cto,|fe- cun- da san- cto spi- ri-|tu, De- si- de-|ra- tus gen- ti- bus, de-|
 B2 A2 f4 e2 d4 ^c2 | d16 | z4 G4 c4 d2 f2- | f2 e2 f2 d2 c4 z4 | z4 E4 G4 A4 | c6 B2 c2 A2 G4 | %60
w: si- de- ra- tus gen- ti-|bus,|Cu- jus per al-|* vum fu- sus est,|cu- jus per|al- vum fu- sus _|
 !fermata!A16 || c3 d e2 f4 e2 f2 d2 | c4 z2 d2 B2 c2 d2 e2 | f3 e d4 z4 z2 d2 | %64
w: est.|Glo- ri- a ti- bi Do- mi-|ne, Qui na- tus es de|vir- gi- ne, qui|
 G2 A2 B2 c2 d3 c B2 A2 | B2 c2 d4 z2 e2 c3 d | e2 f2 g6 f2 e4 | z4 f4 e4 d4 | z2 g2 ^f4 g4 z2 e2 | %69
w: na- tus es de vir- gi- ne, de|vir- gi- ne, qui na- tus|es de vir- gi- ne,|Cum Pa- tre,|cum Pa- tre et|
 f2 d2 e2 c2 d2 e2 f2 d2- | d2 c4 =B2 c4 e4 | g3 f e2 c2 z2 A2 c3 B | A2 F2 z2 B4 AG F4 | %73
w: san- cto Spi- ri- tu, et san- cto|_ Spi- ri- tu, in|sem- pi- ter- na, in sem- pi-|ter- na sæ- cu- * la,|
 z2 c4 BA !fermata!G8 || z4 z2 c2 _e2 d2 c2 B2 | AB c2 B2 A2 z2 F2 B2 A2 | G2 FE FG A4 GF G4 | %77
w: sæ- cu- * la.|A- * * * *|* * * * men. A- * *||
 F4 z2 c2 f3 _e d2 c2 | B2 G2 B4- | B4 A2 G2 !fermata!A8 |] %80
w: men. A- * * * *||* * * men.|
V:3
 [A,,D]2 |[M:4/2] z16 | F,4 G,2 F,2 B,,4 F,4 | E,6 F,2 C,8 | F,8 D,4 z2 D,2 | G,8 C,4 z2 C2- | %6
w: ||Quem ter- ra, pon- tus,|æ- the- ra|co- lunt a-|do- rant, pre-|
 C2 C2 F,4 z2 G,4 G,2 | D,8 z4 G,4 | A,2 G,2 ^F,4 G,2 B,2 A,3 A, | D,4 z2 G,2 F,3 F, B,,2 B,2- | %10
w: * di- cant, pre- di-|cant, Tri-|nam re- gen- tem ma- * chi-|nam, ma- * chi- nam, Clau-|
 B,2 A,2 G,2 B,4 F,2 A,3 A, | D,4 z2 F,2 E,2 D,2 F,4 | C,4 D,3 C, A,,4 z4 | z4 C,8 C,4 | %14
w: * strum Ma- ri- æ ba- ju-|lat, clau- strum Ma- ri-|æ ba- ju- lat,|ba- ju-|
 !fermata!F,16 || z8 F,6 E,2 | F,4 C,4 z2 C4 G,2 | C3 C F,4 z8 | z2 G,2 A,6 G,2 F,2 E,2 | %19
w: lat.|Cu- i|lu- na, Sol, et|om- ni- a|de- ser- vi- unt per|
 D,6 D,2 C,8 | z4 F,4 B,2 C2 D4- | D2 C2 D2 B,2 A,4 z2 D,2 | G,2 F,2 B,4 A,2 D4 G,2 | %23
w: tem- po- ra,|per- fu- sa cæ-|* li gra- ti- a, per-|fu- sa cæ- li gra- ti-|
 C4 z2 C2 =B,2 C2 F,4 | G,2 B,4 C2 G,4 z2 F,2 | E,2 F,2 A,4 G,2 F,4 E,2 | D,8 z4 C,4 | %27
w: a, ge- stant pu- el-|læ vi- sce- ra, ges-|tant pu- el- læ vi- sce-|ra, ges-|
 C,4 C,4 F,6 B,,2 | C,6 C,2 | !fermata!F,16 || z16 | z8 z4 C,4 | F,6 E,2 D,6 C,2 | B,,6 B,,2 A,,8 | %34
w: tant pu- el- læ|vi- sce-|ra.||Be-|a- ta ma- ter|mu- ne- ra,|
 D,8 C,4 D,4 | F,6 G,2 A,6 A,2 | D,8 F,8 | C,6 D,2 E,2 F,2 G,2 A,2 | B,4 C4 G,8 | %39
w: cu- jus su-|per- nus ar- ti-|fex, mun-|dum pu- gil- * * lo|con- ti- nens,|
 z4 F,4 E,4 F,2 A,2- | A,2 G,2 F,2 E,2 D,8 | z4 B,4 A,4 G,2 D2- | D2 C2 B,2 B,2 A,4 z2 D,2 | %43
w: ven- tris sub ar-|* ca clau- sus est,|ven- tris sub ar-|* ca clau- sus est, sub|
 F,6 B,,2 D,4 D,4 | C,8 F,4 C4- | C4 A,4 G,4 G,4 | !fermata!F,16 || z16 | z4 C,4 F,4 E,4 | %49
w: ar- ca clau- sus|est, sub ar-|* ca clau- sus|est.||Be- a- ta|
 A,4 F,4 C6 C2 | F,4 z2 F,2 G,2 E,2 F,2 D,2 | z2 G,2 A,2 F,2 G,2 E,2 F,2 D,2 | C,8 z8 | %53
w: cæ- li nun- ci-|o, Fe- cun- da san- cto,|fe- cun- da san- cto spi- ri-|tu,|
 z2 D,2 C,2 B,,2 F,6 E,2 | D,3 C, D,E,F,G, A,2 F,2 E,4 | z4 D,4 F,4 G,2 B,2- | %56
w: De- si- de- ra- tus|gen- * * * * * * ti- bus,|cu- jus per al-|
 B,2 A,2 B,2 G,2 F,4 B,,4 | C,4 D,2 F,4 E,2 F,2 D,2 | C,8 C,8- | C,8 C,8 | !fermata!F,16 || z16 | %62
w: * vum fu- sus est, cu-|jus per al- vum fu- sus|est, fu-|* sus|est.||
 F,3 G, A,2 B,4 A,2 B,2 G,2 | F,4 z2 G,2 D,2 E,2 F,2 D,2 | G,3 F, _E,2 E,2 D,8 | %65
w: Glo- ri- a ti- bi Do- mi-|ne, Qui na- tus es de|vir- * * gi- ne,|
 z2 A,2 D,2 E,2 F,2 G,2 A,2 B,2 | C6 B,2 A,8 | z4 z2 D2 ^C4 D4 | B,4 A,4 G,4 z2 C2 | %69
w: qui na- tus es de vir- *|* gi- ne,|Cum Pa- tre,|cum Pa- tre et|
 D2 =B,2 C2 A,2 G,4 z2 F,2 | G,2 E,2 F,2 D,2 C,8 | C,4 C3 B, A,2 F,2 z2 D,2 | %72
w: san- cto Spi- ri- tu, et|san- cto Spi- ri- tu,|in sem- pi- ter- na, in|
 F,3 E, D,2 B,,2 D,6 D,2 | !fermata!C,16 || z2 F,2 B,2 A,2 G,2 F,2 E,F, G,2 | F,4 D,8 B,,4 | C,16 | %77
w: sem- pi- ter- na sæ- cu-|la.|A- * * * * * * *|men. A- *|men.|
 z2 D,2 F,3 _E, D,2 C,2 B,,2 A,,2 | B,,8 | !fermata!F,16 |] %80
w: A- * * * * * *||men.|

